svgs/groups/categories.svg

<svg xmlns="http://www.w3.org/2000/svg" viewBox="0 0 16 16" aria-labelledby="title" role="img" class="symbol symbol-categories"><title id="title">categories icon</title><g data-name="Layer 1"><path class="cls-1" d="M1.47 1.76a1.37 1.37 0 1 0 1.37 1.37 1.37 1.37 0 0 0-1.37-1.37zm0 4.79a1.37 1.37 0 1 0 1.37 1.37 1.37 1.37 0 0 0-1.37-1.37zm0 4.79a1.37 1.37 0 1 0 1.37 1.37 1.37 1.37 0 0 0-1.37-1.36zM4.9 13.4h11V12h-11zm0-4.79h11V7.24h-11zm0-6.16v1.36h11V2.44z" data-name="Layer 33" role="presentation"/></g></svg>

<svg xmlns="http://www.w3.org/2000/svg" viewBox="0 0 16 16"><defs><style>.cls-1{fill-rule:evenodd;}</style></defs><title>categories</title><g id="Layer_1" data-name="Layer 1"><g id="Layer_33" data-name="Layer 33"><path class="cls-1" d="M1.47,1.76A1.37,1.37,0,1,0,2.84,3.13,1.37,1.37,0,0,0,1.47,1.76Zm0,4.79A1.37,1.37,0,1,0,2.84,7.92,1.37,1.37,0,0,0,1.47,6.55Zm0,4.79a1.37,1.37,0,1,0,1.37,1.37A1.37,1.37,0,0,0,1.47,11.35ZM4.9,13.4h11V12H4.9Zm0-4.79h11V7.24H4.9Zm0-6.16V3.81h11V2.44Z"/></g></g></svg>
